img/article/article/arrow-right.svg

<svg width="60" height="60" viewBox="0 0 60 60" fill="none" xmlns="http://www.w3.org/2000/svg">
<path opacity="0.4" fill-rule="evenodd" clip-rule="evenodd" d="M30 60C13.4315 60 0 46.5685 0 30C0 13.4315 13.4315 0 30 0C46.5685 0 60 13.4315 60 30C60 46.5685 46.5685 60 30 60ZM34.6948 30L27.2797 37.3779C26.9068 37.749 26.9068 38.3506 27.2797 38.7217C27.6526 39.0928 28.2571 39.0928 28.63 38.7217L36.7203 30.6719C37.0932 30.3008 37.0932 29.6992 36.7203 29.3281L28.63 21.2783C28.2571 20.9072 27.6526 20.9072 27.2797 21.2783C26.9068 21.6494 26.9068 22.251 27.2797 22.6221L34.6948 30Z" fill="white"/>
</svg>

<svg width="60" height="60" fill="none" xmlns="http://www.w3.org/2000/svg"><path opacity=".4" fill-rule="evenodd" clip-rule="evenodd" d="M30 60C13.431 60 0 46.569 0 30 0 13.431 13.431 0 30 0c16.569 0 30 13.431 30 30 0 16.569-13.431 30-30 30zm4.695-30-7.415 7.378a.947.947 0 0 0 0 1.344.958.958 0 0 0 1.35 0l8.09-8.05a.947.947 0 0 0 0-1.344l-8.09-8.05a.958.958 0 0 0-1.35 0 .947.947 0 0 0 0 1.344L34.695 30z" fill="#fff"/></svg>
